svgs/duotone/tv-music.svg

<svg xmlns="http://www.w3.org/2000/svg" viewBox="0 0 640 512"><!--! Font Awesome Pro 6.6.0 by @fontawesome - https://fontawesome.com License - https://fontawesome.com/license (Commercial License) Copyright 2024 Fonticons, Inc. --><defs><style>.fa-secondary{opacity:.4}</style></defs><path class="fa-secondary" d="M0 64C0 28.7 28.7 0 64 0L576 0c35.3 0 64 28.7 64 64l0 288c0 35.3-28.7 64-64 64L64 416c-35.3 0-64-28.7-64-64L0 64zm64 0l0 288 512 0 0-288L64 64zM96 480c0-17.7 14.3-32 32-32l384 0c17.7 0 32 14.3 32 32s-14.3 32-32 32l-384 0c-17.7 0-32-14.3-32-32z"/><path class="fa-primary" d="M576 64L64 64l0 288 512 0 0-288zM416 112l0 40 0 104c0 17.7-21.5 32-48 32s-48-14.3-48-32s21.5-32 48-32c5.6 0 11 .6 16 1.8l0-50.7-96 36 0 76.9c0 17.7-21.5 32-48 32s-48-14.3-48-32s21.5-32 48-32c5.6 0 11 .6 16 1.8l0-57.8 0-40c0-6.7 4.1-12.6 10.4-15l128-48c4.9-1.8 10.4-1.2 14.7 1.8s6.9 7.9 6.9 13.2z"/></svg>

<svg xmlns="http://www.w3.org/2000/svg" viewBox="0 0 640 512"><!--! Font Awesome Pro 6.4.0 by @fontawesome - https://fontawesome.com License - https://fontawesome.com/license (Commercial License) Copyright 2023 Fonticons, Inc. --><defs><style>.fa-secondary{opacity:.4}</style></defs><path class="fa-primary" d="M576 64H64V352H576V64zM416 112v40V256c0 17.7-21.5 32-48 32s-48-14.3-48-32s21.5-32 48-32c5.6 0 11 .6 16 1.8V175.1l-96 36V288c0 17.7-21.5 32-48 32s-48-14.3-48-32s21.5-32 48-32c5.6 0 11 .6 16 1.8V200 160c0-6.7 4.1-12.6 10.4-15l128-48c4.9-1.8 10.4-1.2 14.7 1.8s6.9 7.9 6.9 13.2z"/><path class="fa-secondary" d="M64 64V352H576V64H64zM0 64C0 28.7 28.7 0 64 0H576c35.3 0 64 28.7 64 64V352c0 35.3-28.7 64-64 64H64c-35.3 0-64-28.7-64-64V64zM128 448H512c17.7 0 32 14.3 32 32s-14.3 32-32 32H128c-17.7 0-32-14.3-32-32s14.3-32 32-32z"/></svg>
